modules/framework7-icons/icons/person_fill.svg

<?xml version="1.0" encoding="UTF-8"?>
<svg width="50px" height="50px" viewBox="0 0 50 50" version="1.1" xmlns="http://www.w3.org/2000/svg" xmlns:xlink="http://www.w3.org/1999/xlink">
    <!-- Generator: Sketch 40.1 (33804) - http://www.bohemiancoding.com/sketch -->
    <title>person_fill</title>
    <desc>Created with Sketch.</desc>
    <defs></defs>
    <g id="Page-1" stroke="none" stroke-width="1" fill="none" fill-rule="evenodd">
        <g id="person_fill" fill="#000000">
            <path d="M25,50 C38.8071187,50 50,38.8071187 50,25 C50,11.1928813 38.8071187,0 25,0 C11.1928813,0 0,11.1928813 0,25 C0,38.8071187 11.1928813,50 25,50 Z M20.7653911,8.09999562 C17.7122429,9.50620861 17.5050145,9.68817976 16.1277392,11.5852764 C13.8949579,14.6607704 15.3396723,18.4654457 15.3761308,21.3465586 C15.3824376,21.8449504 14.4045606,21.4096494 14.4580134,21.893507 C14.5373187,22.6113845 14.998053,24.5408495 15.1293917,25.1659541 C15.5685531,27.2561351 15.6674613,26.7398932 16.1277392,27.7860093 C16.5505441,28.7469571 16.8994825,27.642372 17.277971,28.6779493 C17.6744318,29.7627002 17.5487186,32.4722412 17.9712722,33.5163391 C18.9706832,35.9858076 19.9621065,36.0032808 19.248982,38.5900522 C18.9629358,39.6276497 18.4282028,40.7729453 17.277971,41.1475887 C16.1277392,41.5222322 13.17498,42.4157331 13.17498,42.4157331 C13.17498,42.4157331 18.9126448,46.1907719 25.1348484,46.1431844 C31.3570519,46.0955968 37.520504,42.4336912 37.0716371,42.2640031 C35.008902,41.4842136 32.5526283,40.5230372 31.5649482,39.8144466 C30.8648665,39.3121874 29.7312363,37.5696114 30.4122206,35.2712805 C30.7857637,34.0105677 31.1989575,34.4006268 31.5649482,33.5163391 C31.9992661,32.4669628 31.77393,29.4430794 32.4106859,28.0889659 C32.5555518,27.7808967 33.3658192,27.6800067 33.5056524,27.319492 C33.8849782,26.3415232 34.6885497,22.8432445 34.8862158,21.893507 C34.9569449,21.5536711 33.4436022,21.6879422 33.5056524,21.3465586 C33.6436567,20.5872962 33.9548907,19.9058451 34.028712,19.1323802 C34.2461081,16.8546034 33.9970455,13.2298881 33.5056524,11.5852764 C32.8581834,9.41830452 29.1224188,7.70836333 27.8008449,7.59654636 C26.8227273,7.51378887 26.589189,6.85336798 25.5512601,6.85336798 C23.1921148,6.85336798 20.7653911,8.09999562 20.7653911,8.09999562 Z" id="Combined-Shape"></path>
        </g>
    </g>
</svg>

<svg width="50" height="50" viewBox="0 0 50 50" xmlns="http://www.w3.org/2000/svg"><path d="M25 50c13.807 0 25-11.193 25-25S38.807 0 25 0 0 11.193 0 25s11.193 25 25 25zM20.765 8.1c-3.053 1.406-3.26 1.588-4.637 3.485-2.233 3.076-.788 6.88-.752 9.762.006.498-.971.063-.918.547.08.717.54 2.647.671 3.272.44 2.09.538 1.574.999 2.62.423.961.771-.144 1.15.892.396 1.085.27 3.794.693 4.838 1 2.47 1.991 2.487 1.278 5.074-.286 1.038-.82 2.183-1.971 2.558-1.15.374-4.103 1.268-4.103 1.268s5.738 3.775 11.96 3.727c6.222-.047 12.386-3.71 11.937-3.879-2.063-.78-4.52-1.741-5.507-2.45-.7-.502-1.834-2.244-1.153-4.543.374-1.26.787-.87 1.153-1.755.434-1.049.209-4.073.846-5.427.145-.308.955-.409 1.095-.77.379-.977 1.183-4.476 1.38-5.425.07-.34-1.442-.206-1.38-.547.138-.76.449-1.441.523-2.215.217-2.277-.032-5.902-.523-7.547-.648-2.167-4.384-3.877-5.705-3.988-.978-.083-1.212-.744-2.25-.744-2.359 0-4.786 1.247-4.786 1.247z" fill="#000" fill-rule="evenodd"/></svg>
